!!!COM: Bach, Johann Sebastian
!!!OTL@@DE: 305. Wie s&ouml;chn leuchtet der Morgenstern
!!!OTL@EN: How brightly shines the morning star
!!!SCA: BWV 36.4
**kern	**kern	**kern	**kern	**harm	**root
*staff2	*staff2	*staff1	*staff1	*staff2	*
*Iorgan	*Iorgan	*Iorgan	*Iorgan	*Iorgan	*Iorgan
*>[A,A,B]	*>[A,A,B]	*>[A,A,B]	*>[A,A,B]	*>[A,A,B]	*>[A,A,B]
*>norep[A,B]	*>norep[A,B]	*>norep[A,B]	*>norep[A,B]	*>norep[A,B]	*>norep[A,B]
*>A	*>A	*>A	*>A	*>A	*>A
!bass	!tenor	!alto	!sprno	!	!
*clefF4	*clefF4	*clefG2	*clefG2	*	*
*k[f#c#]	*k[f#c#]	*k[f#c#]	*k[f#c#]	*k[f#c#]	*k[f#c#]
*D:	*D:	*D:	*D:	*D:	*D:
*met(C)	*met(C)	*met(C)	*met(C)	*met(C)	*met(C)
*M4/4	*M4/4	*M4/4	*M4/4	*M4/4	*M4/4
*MM60	*MM60	*MM60	*MM60	*MM60	*MM60
4D\	4F#/	4A\	4d/	I	4DD
=1	=1	=1	=1	=1	=1
4C#\	4E/	4A\	4a/	Vb	4AA
8D\L	8D/L	4A\	8f#/L	I	8DD
8C#\J	8E/J	.	8e/J	Vb	8AA
4BB\	8F#/L	4B\	4d/	vi	4BB
.	8G#/J	.	.	.	.
8F#\L	4A/	4c#\	4a/	iii	4FF#
8E\J	.	.	.	.	.
=2	=2	=2	=2	=2	=2
8D\L	4A/	4f#\	8.b/L	vi7	4BB
8BB\J	.	.	.	.	.
.	.	.	32cc#/LL	.	.
.	.	.	32dd/JJJ	.	.
4E\	4G#/	4e\	8cc#/L	V/V	4EE
.	.	.	8b/J	.	.
4AA;\	4c#;/	4e;\	4a;/	V;	4AA;
4D\	4d/	4f#\	4a/	I	4DD
=3	=3	=3	=3	=3	=3
4G\	4d/	4g\	4b/	IV	4GG
8F#\L	4e/	4g\	4cc#/	viiob	4CC#
8E\J	.	.	.	.	.
8F#\L	8A/L	4f#\	4dd/	Ib	4DD
8G#\J	8B/J	.	.	.	.
4A\	4c#/	8e\L	4cc#/	V	4AA
.	.	8a\J	.	.	.
=4	=4	=4	=4	=4	=4
4D\	8F#/L	4a\	8b/L	vi7b	8BB
.	8f#/J	.	8dd/J	I	8DD
4E\	8e/L	4g#\	8cc#/L	V7/V	4EE
.	8d/J	.	8b/J	.	.
4AA;\	4c#;/	4e;\	4a;/	V;	4AA;
4D\	4A/	4d\	4f#/	I	4DD
=5	=5	=5	=5	=5	=5
4G\	4G/	4d\	4b/	IV	4GG
4F#\	4A/	4d\	4a/	Ib	4DD
4E\	8B/L	8d\L	4g/	viio7b	4CC#
.	8G/J	8c#\J	.	.	.
4D\	4A/	4d\	4f#/	I	4DD
=6	=6	=6	=6	=6	=6
2AA\	4.A/	4d\	2e/	V7	2AA
.	.	4c#\	.	.	.
.	8G/	.	.	.	.
4D;\	4F#;/	4A;\	4d;/	I;	4DD;
=7:|!	=7:|!	=7:|!	=7:|!	=7:|!	=7:|!
!!linebreak: 2
*>B	*>B	*>B	*>B	*>B	*>B
2C#\	2A/	2e\	2a/	Vb	2AA
2D;\	2A;/	2d;\	2f#;/	I;	2DD;
=8	=8	=8	=8	=8	=8
2AA\	2c#/	2e\	2a/	V	2AA
2D;\	2A;/	2d;\	2f#;/	I;	2DD;
=9	=9	=9	=9	=9	=9
8D\L	4A/	4d\	4f#/	I	4DD
8E\	.	.	.	.	.
8F#\	4A/	4d\	4f#/	Ib	4DD
8G\J	.	.	.	.	.
8A\L	4A/	4c#\	4e/	V	4AA
8B\	.	.	.	.	.
8A\	4A/	4c#\	4e/	V	4AA
8G\J	.	.	.	.	.
=10	=10	=10	=10	=10	=10
8F#\L	4A/	4d\	4f#/	Ib	4DD
8E\	.	.	.	.	.
8F#\	4A/	4d\	4f#/	I	4DD
8D\J	.	.	.	.	.
8AA\L	4A/	4c#\	4e/	V	4AA
8A\	.	.	.	.	.
8G\	4A/	4d#\	4f#/	viiob/II	4DD#
8F#\J	.	.	.	.	.
=11	=11	=11	=11	=11	=11
4E\	8B/L	4e\	4g/	ii	4EE
.	8c#/J	.	.	.	.
8B\L	4dn/	8dn\L	4f#/	vi	4BB
8A\J	.	8c#\J	.	.	.
4G\	8d/L	4B\	2e/	ii7b	4EE
.	16c#/L	.	.	.	.
.	16B/JJ	.	.	.	.
4A\	8A/L	4c#\	.	V7	4AA
.	8G/J	.	.	.	.
=12	=12	=12	=12	=12	=12
2D;\	2F#;/	2A;\	2d;/	I;	2DD;
4BB\	8F#/L	4f#\	4dd/	vi	4BB
.	8G#/J	.	.	.	.
4FF#\	4A#/	8f#\L	4cc#/	V/VI	4FF#
.	.	8e\J	.	.	.
=13	=13	=13	=13	=13	=13
4GG\	4B/	8d\L	4b/	IV	4GG
.	.	8e\J	.	.	.
4AA\	4c#/	[4f#\	4a/	iiib	4FF#
8BB\L	8d/L	8f#\]	4g/	IV7	8GG
8C#\J	8e/J	4e\	.	viio	8CC#
4D\	4A/	.	4f#/	I	4DD
.	.	[8d\	.	.	.
=14	=14	=14	=14	=14	=14
4GG\	4B/	8d\L]	2e/	ii	4EE
.	.	16c#\L	.	.	.
.	.	16B\JJ	.	.	.
4AA\	8A/L	4c#\	.	V7	4AA
.	8G/J	.	.	.	.
4DD;\	4F#;/	4A;\	4d;/	I;	4DD;
==	==	==	==	==	==
*-	*-	*-	*-	*-	*-
!!!ENC: Craig Stuart Sapp
!!!END: 2004/12/06/
!!chor2scor: -l 2 -s 0.6 -o %b.pmx!!chor2scor: -l 2 -s 0.6 -o %b.pmx
